X: 39195
T: Swinging On The Gate
R: reel
M: 4/4
K: Gmajor
|:gedB G2AB|cABG AGEG|DGBd g2fg|eaag fdef|
gedB G2AB|cABG AGEG|cABG AGEG|DGGF G2Bd:|
|:g3a bgaf|gfed B2 AG|FGAB cBAG|(3EFG AB cdef|
g3a bgaf|gfed B2 AB|cABG AGEG|DGGF G2Bd:|

